X: 17763
T: Hommage A Pigeon
R: reel
M: 4/4
K: Bminor
|:~B3B ~f3f|efed ~c3e|c2c2 d2d2|BcdB cfed|
~B3B ~f3f|efed ~c3e|c2c2 d2d2|1 Bdfd BAFA:|2 Bdfd BABc||
|:d2cd edcd|BFDE FABc|d2cd edcd|BFDE Fff2|
e2cf e2ce|d2Be d2Bd|c2Bc fedc|1 Bcde fdBc:|2 dBdf b4||

